X:1
T:From Choirs Redeemed
T:From Choirs Redeemed
T:William Fletcher McCauley
T:William Fletcher McCauley, 1897
T:Public Domain Courtesy of the Cyber Hymnal™
T:Public Domain Courtesy of the Cyber Hymnal™
C:William Fletcher McCauley
Z:Public Domain
Z:Courtesy of the Cyber Hymnal™
%%score ( 1 2 ) ( 3 4 )
L:1/8
Q:1/4=160
M:4/4
K:F
V:1 treble 
V:2 treble 
V:3 bass 
V:4 bass 
V:1
 C2 | [CF]6 [CG]2 | [FA]6 [EG]2 | [FA]6 [FB]2 | [Fc]6 [Fc]2 | [Fd]6 [Fd]2 | [Fc]6 [FA]2 | %7
w: 1.~From|choirs re-|deemed in|realms a-|bove, Full|gent- ly|breathes the|
w: 2.~Hark!|plain- er|now we|hear their|song, And|sweet- er|still their|
w: 3.~Soon|we shall|join the|heav’n- ly|choirs That|sing Im-|man- uel’s|
 [Fc]4 ([EB]2 [FA]2) | [EG]6 [CG]2 | [CF]6 [CF]2 | [FA]6 [EG]2 | [FA]6 [EB]2 | [Fc]6 [Fc]2 | %13
w: whis- pering *|strain; They|sing the|song of|Je- sus’|love— Come|
w: mu- sic *|floats, While|we in|loud- er|strains pro-|long And|
w: praise on *|high, While|each ex-|ult- ant|voice as-|pires With|
 [Fd]2 [Fe]2 [Ff]2 [Fd]2 | [Fc]6 [GB]2 | [FA]4 [CG]4 | [CF]6 ||"^Refrain" C2 | F2 F2 F2 G2 | %19
w: let us join to|raise our|glad re-|frain.|His|word is sure, His|
w: tell our joy in|more tri-|umph- ant|notes.|||
w: joy to swell the|cho- rus|of the|sky.|||
 A2 A2 A2 [CG]2 | [CA]2 [CA]2 [CA]2 [FB]2 | [Fc]2 [Fc]2 [Fc]2 [Fc]2 | %22
w: mer- cy free, He|gave Him- self to|ran- som me; His|
w: |||
w: |||
 [Fd]2 [Fd]2 [Fd]2 ([Ac][GB]) | [Fc]2 [Fc]2 [Fc]2 (BG) | [EB]2 [EB]2 [FA]2 [EG]2 | %25
w: word is sure, His *|mer- cy free, He *|gave Him- self to|
w: |||
w: |||
 ([FA][EG]) ([FA][GB]) [Ac]2 [Fc]2 | [Fd]6 ([Ac][GB]) | [Fc]6 (BA) | ([EB]4 [FA]2) [EG]2 | %29
w: ran- * som * me; His|word is *|sure, His *|mer- * cy|
w: ||||
w: ||||
 [FA]6 [Fc]2 | [Fd]6 ([Ac][GB]) | [Fc]6 ([DF][FB]) | [FA]4 [CG]4 | [CF]6 |] %34
w: free, *|||||
w: |||||
w: |||||
V:2
 C2 | x8 | x8 | x8 | x8 | x8 | x8 | x8 | x8 | x8 | x8 | x8 | x8 | x8 | x8 | x8 | x6 || x2 | x8 | %19
 x8 | x8 | x8 | x8 | x6 F2 | x8 | x8 | x8 | x6 F2 | x8 | x8 | x8 | x8 | x8 | x6 |] %34
V:3
 [F,A,]2 | [F,A,]6 [F,B,]2 | [F,C]6 [C,C]2 | [F,C]6 [F,G,]2 | [F,A,]6 [A,,C]2 | [B,,B,]6 [B,,B,]2 | %6
w: ~|~ ~|~ ~|~ ~|~ ~|~ ~|
 [F,A,]6 [F,C]2 | [A,C]4 C4 | [C,C]6 [E,B,]2 | [F,A,]6 [F,B,]2 | [F,C]6 [C,C]2 | [F,C]6 [G,C]2 | %12
w: ~ ~|~ ~|~ ~|~ ~|~ ~|~ ~|
 [A,C]6 [A,,C]2 | [B,,B,]2 [B,,C]2 [B,,D]2 [D,B,]2 | [F,A,]6 [B,,D]2 | [C,C]4 C2 B,2 | [F,A,]6 || %17
w: ~ ~|~ ~ ~ ~|~ ~|~ ~ ~|~|
 z2 | z6 C,2 | F,2 F,2 F,2 E,2 | F,2 F,2 F,2 [F,G,]2 | [F,A,]2 [F,A,]2 [F,A,]2 [F,A,]2 | %22
w: |~|~ ~ ~ ~|~ ~ ~ ~|~ ~ ~ ~|
 [B,,B,]6 [B,,F,]2 | [A,,F,]6 (F,C) | [C,C]6 [C,C]2 | [G,C]6 [F,A,]2 | %26
w: word is|sure, His *|mer- cy|free; His|
 [B,,B,]2 [B,,B,]2 [B,,B,]2 [B,,F,]2 | [A,,F,]2 [A,,F,]2 [A,,F,]2 (F,C) | %28
w: word is sure, His|mer- cy free, He *|
 [C,C]2 [C,C]2 [C,C]2 [C,C]2 | ([F,A,][E,G,]) ([F,A,][G,B,]) [A,C]2 [F,A,]2 | [B,,B,]6 [B,,F,]2 | %31
w: gave Him- self to|ran- * som * me, He|gave Him-|
 [A,,F,]6 (F,D) | [C,C]4 (C2 B,2) | [F,A,]6 |] %34
w: self to *|ran- som *|me.|
V:4
 x2 | x8 | x8 | x8 | x8 | x8 | x8 | x4 (G,2 F,2) | x8 | x8 | x8 | x8 | x8 | x8 | x8 | x4 C,4 | %16
 x6 || x2 | x8 | x8 | x8 | x8 | x8 | x6 A,,2 | x8 | x8 | x8 | x6 A,,2 | x8 | x8 | x8 | x6 B,,2 | %32
 x4 C,4 | x6 |] %34

